X: 2
T: The Minstrel's Fancy
R: hornpipe
M: 4/4
L: 1/8
K: Dmaj
FG|AFAd BGBd|AFAd f2ef|gfed cABc|dAfd A2FG|AFAd BGBd|AFAd f2ef|gfed cABc|d2f2d2::ef|gfed cABc|dcde f2ef|gfed cABc|dAfd A2FG|AFAd BGBd|AFAd f2ef|gfed cABc|d2f2d2:|


Tune 2761	Setting 15988

